symbols/web/mark_as_unread/materialsymbolsrounded/mark_as_unread_gradN25fill1_20px.svg

<svg xmlns="http://www.w3.org/2000/svg" height="20" width="20"><path d="M3.5 14.042q-.688.02-1.167-.448-.479-.469-.479-1.156V6.021q0-.333.167-.615.167-.281.479-.448l5.521-2.75q.187-.104.375-.145.187-.042.375-.042.208 0 .385.042.177.041.365.145l5.396 2.75q.25.146.427.407.177.26.239.531h-2.437L8.771 3.667 3.5 6.333Zm2.479 3.25q-.687 0-1.167-.48-.479-.479-.479-1.166V8.333q0-.687.479-1.166.48-.479 1.167-.479H16.5q.688 0 1.167.479.479.479.479 1.166v7.313q0 .687-.479 1.166-.479.48-1.167.48Zm5.271-4.709q.104 0 .198-.031.094-.031.177-.073l4.5-2.354q.167-.083.281-.24.115-.156.115-.385 0-.375-.344-.604-.344-.229-.698-.042l-4.229 2.229-4.229-2.229q-.417-.187-.74.042t-.323.583q0 .209.115.365t.281.26l4.521 2.375q.042.021.375.104Z"/></svg>

<svg xmlns="http://www.w3.org/2000/svg" height="20" width="20"><path d="M3.5 14.042Q2.812 14.062 2.333 13.594Q1.854 13.125 1.854 12.438V6.021Q1.854 5.688 2.021 5.406Q2.188 5.125 2.5 4.958L8.021 2.208Q8.208 2.104 8.396 2.063Q8.583 2.021 8.771 2.021Q8.979 2.021 9.156 2.063Q9.333 2.104 9.521 2.208L14.917 4.958Q15.167 5.104 15.344 5.365Q15.521 5.625 15.583 5.896H13.146L8.771 3.667L3.5 6.333ZM5.979 17.292Q5.292 17.292 4.812 16.812Q4.333 16.333 4.333 15.646V8.333Q4.333 7.646 4.812 7.167Q5.292 6.688 5.979 6.688H16.5Q17.188 6.688 17.667 7.167Q18.146 7.646 18.146 8.333V15.646Q18.146 16.333 17.667 16.812Q17.188 17.292 16.5 17.292ZM11.25 12.583Q11.354 12.583 11.448 12.552Q11.542 12.521 11.625 12.479L16.125 10.125Q16.292 10.042 16.406 9.885Q16.521 9.729 16.521 9.5Q16.521 9.125 16.177 8.896Q15.833 8.667 15.479 8.854L11.25 11.083L7.021 8.854Q6.604 8.667 6.281 8.896Q5.958 9.125 5.958 9.479Q5.958 9.688 6.073 9.844Q6.188 10 6.354 10.104L10.875 12.479Q10.917 12.5 11.25 12.583Z"/></svg>
